img/icons/Star-gray.svg

<svg width="23" height="22" viewBox="0 0 23 22" fill="none" xmlns="http://www.w3.org/2000/svg">
<path d="M11.5 0.705566L14.0819 8.65187H22.4371L15.6776 13.563L18.2595 21.5093L11.5 16.5982L4.74047 21.5093L7.32238 13.563L0.56285 8.65187H8.91809L11.5 0.705566Z" fill="#C4C4C4"/>
</svg>

<svg width="23" height="22" fill="none" xmlns="http://www.w3.org/2000/svg"><path d="M11.5.706l2.582 7.946h8.355l-6.76 4.911 2.582 7.946L11.5 16.6l-6.76 4.91 2.582-7.946-6.76-4.911h8.356L11.5.706z" fill="#C4C4C4"/></svg>
